X: 2
T: Cuffy
I: Cuffy		R-122	G	reel
M: C|
R: reel
K: G
ef| "G"gfed BdBG| DEGA B4| "D"DFAB cBcd| "G"edBc d2ef|
    "G"gfed BdBG| DEGA B4| "D"DFAB cAFD| "G"G6 :|
|:Bc| "G"d4 d4| dedc Bcd2| "C"e4 e4| efed Bdef|
    "G"g2ga gfef| gfed BdBG| "D"DFAB cAFD| "G"G6 :|

